X:1
T:St. Pancras, LM
T:St. Pancras, LM
T:Jonathan Battishill (1738-1801)
T:Public Domain Courtesy of the Cyber Hymnal™
C:Jonathan Battishill (1738-1801)
Z:Public Domain
Z:Courtesy of the Cyber Hymnal™
%%score ( 1 2 ) ( 3 4 )
L:1/8
Q:1/4=110
M:3/4
K:D
V:1 treble 
V:2 treble 
V:3 bass 
V:4 bass 
V:1
 D2 | A4 [Dd]2 | (c2 B2) [DA]2 | ([CG]2 [DA]2) [DF]2 | ([DF]2 [CE]2) [DF]2 | (G2 B2) [B,d]2 | %6
 (A2 GF) (ED) | (DE [DF]2) [CE]2 | D4 [DF]2 | B4 [Fc]2 | (d3 c) [FB]2 | ([E^A]2 [FB]2) G2 | %12
 [CF]4 [Fc]2 | [Dd]4 [=CF]2 | B4 (DE) | [DF]4 [CE]2 | D4 |] %17
V:2
 D2 | (F2 E2) x2 | D4 x2 | x6 | x6 | D4 x2 | A,4 ^G,2 | A,2 x4 | D4 x2 | (D2 F2) x2 | F4 x2 | %11
 x4 (ED) | x6 | x6 | (B,2 C2) D2 | x6 | D4 |] %17
V:3
 [D,F,]2 | (A,2 G,2) [D,F,]2 | G,4 [F,A,]2 | A,4 [D,A,]2 | [A,,A,]4 [D,A,]2 | (G,2 D,2) [G,,D,]2 | %6
 [F,,D,]4 [B,,E,]2 | (F,G, A,2) [A,,G,]2 | [D,F,]4 [B,,F,]2 | ([B,,F,]2 [D,B,]2) [F,^A,]2 | %10
 (B,3 C) [B,,D]2 | ([C,C]2 [D,B,]2) (CB,) | [F,^A,]4 [^A,,F,]2 | [B,,F,]4 [A,,D,]2 | %14
 (D,2 E,2) ([F,,A,][G,,B,]) | [A,,A,]4 [A,,G,]2 | [D,F,]4 |] %17
V:4
 x2 | D,4 x2 | G,4 x2 | (E,2 F,2) x2 | x6 | B,,4 x2 | x6 | A,,4 x2 | x6 | x6 | B,4 x2 | x4 E,2 | %12
 x6 | x6 | G,,4 x2 | x6 | x4 |] %17

